X: 0226
T: Miss Agnes Loudon
N: Suggested tune for Lass o' Loudon
C: trad.
B: Miss Milligan's Miscellany v.2 #226
Z: 2019 John Chambers <jc:trillian.mit.edu>
M: 4/4
L: 1/16
R: strathspey
K: Bb
%
de |\
"Bb"f3g fb3 d3e df3 | "Bb"B3c Bd3 F3G Fd3 |\
"Eb"e3d eg3 fd3 c2B | "Cm"G3c edcB "F7"Ac3 c2||
de |\
"Bb"f3g fb3 d3e df3 | "Bb"B3c Bd3 F3G FD3 |\
"Eb"EGBe gb3 "Bb"fd3 "Cm"c3g | "Bb"f3d "F7"edcB "Bb"F2B2 B2 |]
DE |\
"Bb"F3D FB3 "Eb"GE3 "Cm"c3d | "C7"e3d c3B "F7"Ac3 c2DE |\
"Bb"F3D FB3 "Eb"GE3 "G7"g3f | "Cm"e3d "F7"c3B "Bb"FB3 B2
DE |\
"Bb"F3D FB3 "Eb"GE3 "Cm"c3d | "C7"e3d c3B "F"Ac3 c2BA |\
"Eb"GE3 "G7"g3f "Cm"e2c2 "C7"c2B2 | "F"ABcA "F7"F3e "Bb"dB3 B2 |]
